X:406
T: HIER STEHEN WIR AUF UNSERN KRUECKEN
N: E0334
O: Europa, Mitteleuropa, Deutschland; Frankreich, Elsass
R: historisches Lied, Krieg, Invalieden; Tod Friedrich II (1786)
M: 4/4
L: 1/8
K: Bb
fdf | B4zbbc | b2g2z
bag | f2dgfece | e2d2z
fcd | eaa3ceg | g2f2z
fcd | eaa3ceg | g2f2z
bag | f3ed2c2 | fed2z
bag | f3ed2c2 | B4z

@@@ Tune index: 4056
